X:023
U: ~ = !turn!
%%topmargin 3cm
T:Callaghan's Hornpipe
B:Traditional Irish Fiddle Tunes. Randy Miller and Jack Perron.
S:Chieftains
Z:Transcribed by Ralph Palmer
R:Hornpipe
M:C|
L:1/8
K:G
Bd | efgf eABA | GABd {/e}dBGE | DEGA BABd | ((3efg) fg edBd |
Jg2fg edBd | geaf gfed | B2GB A2FA | G2 {/A}GF G2 ::
fg | afge dega | bB{/c}BA G2fg | afge dega | beed e4 |
((3faf) ((3def) gfea | ((3faf) ((3def) gfef | ((3gab) af gfed | ((3Bcd) ed e2 :|]
